X:395
%%etbk:tnset id:114,pos:2,rep:3x,ant:
%%etbk:tnset id:258,pos:13,rep:1x+A1B,ant:
%%etbk:wsite http://www.thesession.org/tunes/display/329
%%etbk:pldat 2016-06-23T18:27,2016-06-22T16:22,2016-06-21T16:24,2016-05-18T16:14,2016-05-16T15:30,2016-05-05T15:00,2016-05-04T15:36,2016-03-05T13:54,2016-02-27T15:09,2016-02-04T19:14,2016-02-03T16:20,2016-02-02T17:07,2015-11-20T17:25,2015-11-18T17:03,2015-11-17T17:01,2015-11-15T15:13,2015-11-11T15:18,2015-10-28T17:05,2015-10-25T15:00,2015-09-10T16:38,2015-09-03T16:53,2015-09-02T16:55,2015-09-01T16:43,2015-08-31T19:02,2015-08-30T15:00,2015-08-26T15:59,2015-08-06T18:00,2015-08-05T16:49,2015-08-04T16:06,2015-08-03T18:40,2015-08-01T15:48,2015-06-26T17:54,2015-06-18T19:03,2015-06-18T17:58,2015-06-16T16:07,2015-04-16T19:00,2015-04-15T16:21,2015-04-13T18:41,2015-04-12T11:08,2015-04-11T14:23,2015-03-19T18:49,2015-03-16T19:03,2015-03-11T16:07,2015-02-22T15:27,2015-02-21T16:44,2015-02-18T15:56,2015-02-11T15:21,2015-01-13T16:52,2015-01-07T16:41,2014-10-29T17:15,2014-10-28T15:23,2014-10-23T18:31,2014-08-21T19:21,2014-08-18T19:20,2014-06-22T16:43,2014-06-20T16:26,2014-06-11T16:52,2014-04-24T18:19,2014-04-23T16:21,2014-04-16T09:06,2014-04-06T11:21,2014-03-25T16:12,2014-03-04T18:53,2014-01-30T18:23,2014-01-29T16:27,2014-01-28T17:05,2014-01-22T16:24,2014-01-21T17:19,2014-01-19T13:43,2014-01-18T14:18,2014-01-17T18:00,2014-01-08T15:47,2014-01-03T15:59,2013-10-30T16:56,2013-10-29T15:51,2013-10-26T16:58,2013-10-16T15:35,2013-10-13T15:37,2013-09-11T18:59,2013-05-13T18:01
T: Newmarket, The
Z: Piano Box Version by Martin Fleischmann
H: Created 2013-02-19 /  Last Modified 2013-02-19
M: 2/4
L: 1/8
R: polka
K: Amaj
 |: "A"!5!e2 !3!c>{e}c | !2!B!1!E !2!A>!3!B | !4!c!1!E !2!A!3!B | "E"!4!c!3!B !2!B!3!c | "A"!5!e2 !3!c>{e}c | !2!B!1!E !2!A>B | !4!c!1!E !2!AB | !4!c!2!A A2 :|
|: "A"!1!ef/g/ !4!a>a | !3!gf {a}f!1!e | !2!c!1!e !2!f>g | !2!f!1!e !2!c!1!e | !1!ef/g/ !4!a>a | !3!gf {a}f!1!e | !2!c!1!e !2!fg | !4!a2 a2.:|


